icons/3_Generic/Video.svg

<svg width="1024" height="1024" viewBox="0 0 1024 1024" fill="none" xmlns="http://www.w3.org/2000/svg">
<g clip-path="url(#clip0_3_449)">
<path d="M512 1024C794.77 1024 1024 794.77 1024 512C1024 229.23 794.77 0 512 0C229.23 0 0 229.23 0 512C0 794.77 229.23 1024 512 1024Z" fill="#8C72BD"/>
<path d="M600.67 483.288L480.2 402.978C473.28 398.358 463.93 400.228 459.32 407.148C457.66 409.628 456.78 412.548 456.79 415.528V576.158C456.78 584.478 463.51 591.228 471.83 591.238C474.81 591.238 477.73 590.358 480.21 588.708L600.68 508.398C607.61 503.798 609.5 494.458 604.9 487.528C603.79 485.853 602.355 484.418 600.68 483.308L600.67 483.288ZM486.9 548.018V443.658L565.16 495.838L486.9 548.018ZM732.86 320.148H291.13C271.72 320.148 255.99 335.878 255.99 355.288V636.388C255.99 655.798 271.72 671.528 291.13 671.528H732.86C752.27 671.528 768 655.798 768 636.388V355.288C768 335.878 752.27 320.148 732.86 320.148ZM737.88 636.388C737.88 639.158 735.63 641.408 732.86 641.408H291.13C288.36 641.408 286.11 639.158 286.11 636.388V355.288C286.11 352.518 288.36 350.268 291.13 350.268H732.86C735.63 350.268 737.88 352.518 737.88 355.288V636.388ZM768 736.778C768 745.098 761.26 751.838 752.94 751.838H271.06C262.74 751.838 256 745.098 256 736.778C256 728.458 262.74 721.718 271.06 721.718H752.94C761.26 721.718 768 728.458 768 736.778Z" fill="white"/>
</g>
<defs>
<clipPath id="clip0_3_449">
<rect width="1024" height="1024" fill="white"/>
</clipPath>
</defs>
</svg>

<svg xmlns="http://www.w3.org/2000/svg" viewBox="0 0 1024 1024">
   <circle cx="512" cy="512" r="512" style="fill:#6750a4"/>
   <path d="M600.67 483.29 480.2 402.98c-6.92-4.62-16.27-2.75-20.88 4.17-1.66 2.48-2.54 5.4-2.53 8.38v160.63c-.01 8.32 6.72 15.07 15.04 15.08 2.98 0 5.9-.88 8.38-2.53l120.47-80.31c6.93-4.6 8.82-13.94 4.22-20.87a15.008 15.008 0 0 0-4.22-4.22ZM486.9 548.02V443.66l78.26 52.18-78.26 52.18Zm245.96-227.87H291.13c-19.41 0-35.14 15.73-35.14 35.14v281.1c0 19.41 15.73 35.14 35.14 35.14h441.73c19.41 0 35.14-15.73 35.14-35.14v-281.1c0-19.41-15.73-35.14-35.14-35.14Zm5.02 316.24c0 2.77-2.25 5.02-5.02 5.02H291.13c-2.77 0-5.02-2.25-5.02-5.02v-281.1c0-2.77 2.25-5.02 5.02-5.02h441.73c2.77 0 5.02 2.25 5.02 5.02v281.1ZM768 736.78c0 8.32-6.74 15.06-15.06 15.06H271.06c-8.32 0-15.06-6.74-15.06-15.06s6.74-15.06 15.06-15.06h481.88c8.32 0 15.06 6.74 15.06 15.06Z" style="fill:#fff"/>
</svg>
